X:92
T: ALS JUNGFRAU LINNICH NOCH EIN KLEIN MAEDCHEN WAR
N: Z0092
O: Europa, Mitteleuropa, Deutschland, Herzogtum Berg
R: Sagen - Lied, Romanze, Tod
M: 4/4
L: 1/16
K: D
=C2=F2G2 | A2_B2=c8B2B2 | _BAGA=F4z2
=C2F2G2 | A2_B2=c8B2B2 | _BAGA=F4z2
A2D2E2 | =F2G2A8G4 | =FGEFD4z2
A2D2E2 | =F2G2A8G4 | =FGEFD4z2

@@@ Tune index: 9850
